!!!OTL: TREULIEB IST NIMMER WEIT
!!!ARE: Europa, Mitteleuropa, Deutschland
!!!SCT: F0908
!!!YEM: Copyright 1995, estate of Helmut Schaffrath.
**kern
*ICvox
*Ivox
*M6/8
*k[b-e-a-]
*E-:
{8b-
=1
4g
8g
8.b-
16a-
16g
16f
=2
2e-
8r}
{8e-
=3
8ee-
8dd
8cc
8cc
8b-
8an
=4
4.b-}
{8g
8ee-
8cc
=5
4b-
16ee-
16dd
4cc
16dd
16cc
=6
2b-
8r}
{8cc
=7
8b-
8a-
8g
8b-
8a-
8g
=8
2.a-}
=9
{4g
8b-
8b-
8a-
8a-
=10
8g
8b-
8ee-
8ee-
8dd
8dd}
=11
{4ee-
8dd-
4.cc
=12
8cc
8b-
8d
4e-}
==
!!!AGN: Liebes - Lied
!!!ONB: ESAC (Essen Associative Code) Database: FINK
!!!AMT: compound duple
!!!AIN: vox
!!!EED: Helmut Schaffrath
!!!EEV: 1.0
*-
